X: 1
T: Isfjordingen reinlender - etter Elling Daugstad
R: shottish, reinlender
Z: 2014 John Chambers <jc:trillian.mit.edu>
S: from a transcription by Lars Brovold
M: 2/4
L: 1/16
K: G
V: 1
(dc) |\
"G"BdBG "D7"AcAF | "G"G2D2D2 (AB) | "D7"c2A2A2 (ef) | "G"g2d2d2 (dc) |
"G"BdBG "D7"AcAF | "G"G2D2D2 (AB) | "D7"c2A2 fdfa | "G"g2b2g2 :|
|: (gf) |\
"Em"e^def "C"gfga | "G"GB2Bc d4 | "D7"dCAB c2c2 | "G"BAGA B2"+7"B2 |
"Em"e^def "C"gfga | "G"GB2Bc d4 | "D7"dCAB cdef | "G"g2b2g2 :|
|: (gf) |\
"C"~e2c2 ~e2ce | "G"~d2B2 GBdB | "D7"c2A2 FAdc | "G"B2G2 GBdg |
"C"~e2c2 ~e2ce | "G"~d2B2 GBdB | "D7"c2A2 fdfa | "G"g2g2g2 :|
V: 2
(BA) |\
GBGD FAFD | B,2B,2B,2 (FG) | ADFA | F2GA | B2B2B2 (BA) |
G4 (F3D) | B,2B,2B,2 (FG) | A2F2 A3c | B2d2B2 :|
|: (eA) |\
G4 E4 | D2GA B4 | AGFG A2A2 | DGB,D G2G2 |
[B4G4] [c4E4] | | D2GA B4 | AGFG ABcA | B2d2B2 :|
|: (eA) |
~G2E2 ~G2EG | ~B2G2 G2BG | A2F2 D2FF | G2D2 B,DB2 |
~G2E2 ~G2EG | ~B2G2 G2BG | A2F2 ABcA | B2B2B2 :|
